X:262
T:Plinn Shep#3 bm 
O:Shepherd Plinn #3
J:Lark15
M:4/4
K:Bm
L:1/8
|e|"A"ecdB "E"BA"A"Ae|"A"ec"G"dc"Bm"B2Be|"A"ecdB BAAe|ecdcB2B2|
|:"Bm"Bcde fgf2|(3def gf edce|ecdB BAAe|ecdcB2B2:|

